Numix/48/places/purple-folder-art.svg

<?xml version="1.0" encoding="UTF-8" standalone="no"?>
<!-- Created with Inkscape (http://www.inkscape.org/) -->

<svg
   xmlns:dc="http://purl.org/dc/elements/1.1/"
   xmlns:cc="http://creativecommons.org/ns#"
   xmlns:rdf="http://www.w3.org/1999/02/22-rdf-syntax-ns#"
   xmlns:svg="http://www.w3.org/2000/svg"
   xmlns="http://www.w3.org/2000/svg"
   xmlns:xlink="http://www.w3.org/1999/xlink"
   xmlns:sodipodi="http://sodipodi.sourceforge.net/DTD/sodipodi-0.dtd"
   xmlns:inkscape="http://www.inkscape.org/namespaces/inkscape"
   width="48"
   height="48"
   id="svg2"
   version="1.1"
   inkscape:version="0.48.5 r10040"
   sodipodi:docname="folder-art2.svg">
  <defs
     id="defs4">
    <linearGradient
       id="linearGradient3855">
      <stop
         style="stop-color:#000000;stop-opacity:1;"
         offset="0"
         id="stop3857" />
      <stop
         style="stop-color:#000000;stop-opacity:0.29411766;"
         offset="1"
         id="stop3859" />
    </linearGradient>
    <linearGradient
       id="linearGradient3833">
      <stop
         id="stop3835"
         offset="0"
         style="stop-color:#fdfeff;stop-opacity:1;" />
      <stop
         id="stop3837"
         offset="1"
         style="stop-color:#dfe4e4;stop-opacity:1;" />
    </linearGradient>
    <linearGradient
       id="linearGradient3823">
      <stop
         style="stop-color:#49b7ef;stop-opacity:1;"
         offset="0"
         id="stop3825" />
      <stop
         style="stop-color:#1d8de2;stop-opacity:1;"
         offset="1"
         id="stop3827" />
    </linearGradient>
    <linearGradient
       id="linearGradient3956">
      <stop
         style="stop-color:#f8f4e1;stop-opacity:1;"
         offset="0"
         id="stop3958" />
      <stop
         style="stop-color:#eae5c8;stop-opacity:1;"
         offset="1"
         id="stop3960" />
    </linearGradient>
    <linearGradient
       id="linearGradient3915">
      <stop
         style="stop-color:#f8f4e1;stop-opacity:1;"
         offset="0"
         id="stop3917" />
      <stop
         style="stop-color:#ad9e57;stop-opacity:1;"
         offset="1"
         id="stop3919" />
    </linearGradient>
    <linearGradient
       inkscape:collect="always"
       id="linearGradient3861">
      <stop
         style="stop-color:#000000;stop-opacity:1;"
         offset="0"
         id="stop3863" />
      <stop
         style="stop-color:#000000;stop-opacity:0;"
         offset="1"
         id="stop3865" />
    </linearGradient>
    <linearGradient
       id="linearGradient3844">
      <stop
         style="stop-color:#000000;stop-opacity:0.39215687;"
         offset="0"
         id="stop3846" />
      <stop
         style="stop-color:#000000;stop-opacity:0;"
         offset="1"
         id="stop3848" />
    </linearGradient>
    <linearGradient
       id="linearGradient3810">
      <stop
         style="stop-color:#f2c66f;stop-opacity:1;"
         offset="0"
         id="stop3812" />
      <stop
         style="stop-color:#fbd68f;stop-opacity:1;"
         offset="1"
         id="stop3814" />
    </linearGradient>
    <linearGradient
       inkscape:collect="always"
       xlink:href="#linearGradient3810"
       id="linearGradient3816"
       x1="24"
       y1="1046.3622"
       x2="24"
       y2="1014.3622"
       gradientUnits="userSpaceOnUse" />
    <radialGradient
       inkscape:collect="always"
       xlink:href="#linearGradient3844"
       id="radialGradient3850"
       cx="24.075672"
       cy="41.38316"
       fx="24.075672"
       fy="41.38316"
       r="21.075672"
       gradientTransform="matrix(1,0,0,0.11307633,0,36.703704)"
       gradientUnits="userSpaceOnUse" />
    <linearGradient
       inkscape:collect="always"
       xlink:href="#linearGradient3810"
       id="linearGradient3856"
       gradientUnits="userSpaceOnUse"
       x1="24"
       y1="1046.3622"
       x2="24"
       y2="1014.3622"
       gradientTransform="translate(0,-3)" />
    <linearGradient
       inkscape:collect="always"
       xlink:href="#linearGradient3810"
       id="linearGradient3858"
       gradientUnits="userSpaceOnUse"
       x1="24"
       y1="1046.3622"
       x2="24"
       y2="1014.3622"
       gradientTransform="translate(0,-1004.3622)" />
    <linearGradient
       inkscape:collect="always"
       xlink:href="#linearGradient3861"
       id="linearGradient3867"
       x1="1.9952808"
       y1="28.5625"
       x2="46.004719"
       y2="28.5625"
       gradientUnits="userSpaceOnUse" />
    <linearGradient
       inkscape:collect="always"
       xlink:href="#linearGradient3915"
       id="linearGradient3921"
       x1="35"
       y1="8"
       x2="38"
       y2="5"
       gradientUnits="userSpaceOnUse" />
    <linearGradient
       inkscape:collect="always"
       xlink:href="#linearGradient3915"
       id="linearGradient3933"
       gradientUnits="userSpaceOnUse"
       x1="35"
       y1="8"
       x2="38"
       y2="5"
       gradientTransform="matrix(1.0436562,0,0,1.2222222,26.301501,1003.2511)" />
    <linearGradient
       inkscape:collect="always"
       xlink:href="#linearGradient3915"
       id="linearGradient3954"
       x1="35"
       y1="11"
       x2="44"
       y2="5"
       gradientUnits="userSpaceOnUse"
       gradientTransform="translate(22,1004.3622)" />
    <linearGradient
       inkscape:collect="always"
       xlink:href="#linearGradient3823"
       id="linearGradient3829"
       x1="21"
       y1="14"
       x2="20"
       y2="24"
       gradientUnits="userSpaceOnUse" />
    <linearGradient
       inkscape:collect="always"
       xlink:href="#linearGradient3833"
       id="linearGradient3839"
       gradientUnits="userSpaceOnUse"
       x1="21"
       y1="14"
       x2="20"
       y2="26" />
    <linearGradient
       inkscape:collect="always"
       xlink:href="#linearGradient3855"
       id="linearGradient3862"
       x1="22"
       y1="15"
       x2="20"
       y2="30"
       gradientUnits="userSpaceOnUse" />
    <clipPath
       id="clipPath-069049578">
      <g
         id="g3352"
         transform="translate(0,-1004.3622)">
        <path
           id="path3354"
           fill="#1890d0"
           transform="matrix(15.333333,0,0,11.5,414.99999,878.8622)"
           d="m -24 13 c 0 1.105 -0.672 2 -1.5 2 -0.828 0 -1.5 -0.895 -1.5 -2 0 -1.105 0.672 -2 1.5 -2 0.828 0 1.5 0.895 1.5 2 z" />
      </g>
    </clipPath>
    <clipPath
       id="clipPath-059275953">
      <g
         id="g3347"
         transform="translate(0,-1004.3622)">
        <path
           id="path3349"
           fill="#1890d0"
           transform="matrix(15.333333,0,0,11.5,414.99999,878.8622)"
           d="m -24 13 c 0 1.105 -0.672 2 -1.5 2 -0.828 0 -1.5 -0.895 -1.5 -2 0 -1.105 0.672 -2 1.5 -2 0.828 0 1.5 0.895 1.5 2 z" />
      </g>
    </clipPath>
    <linearGradient
       gradientTransform="matrix(0,-1,1,0,-1.5e-6,47.999998)"
       gradientUnits="userSpaceOnUse"
       x2="47"
       x1="1"
       id="linearGradient3764">
      <stop
         id="stop3342"
         stop-opacity="1"
         stop-color="#d6740a" />
      <stop
         id="stop3344"
         stop-opacity="1"
         stop-color="#e87e0b"
         offset="1" />
    </linearGradient>
    <clipPath
       id="clipPath-483879499">
      <g
         id="g3401"
         transform="translate(0,-1004.3622)">
        <path
           id="path3403"
           fill="#1890d0"
           transform="matrix(15.333333,0,0,11.5,414.99999,878.8622)"
           d="m -24 13 c 0 1.105 -0.672 2 -1.5 2 -0.828 0 -1.5 -0.895 -1.5 -2 0 -1.105 0.672 -2 1.5 -2 0.828 0 1.5 0.895 1.5 2 z" />
      </g>
    </clipPath>
    <clipPath
       id="clipPath-478329641">
      <g
         id="g3396"
         transform="translate(0,-1004.3622)">
        <path
           id="path3398"
           fill="#1890d0"
           transform="matrix(15.333333,0,0,11.5,414.99999,878.8622)"
           d="m -24 13 c 0 1.105 -0.672 2 -1.5 2 -0.828 0 -1.5 -0.895 -1.5 -2 0 -1.105 0.672 -2 1.5 -2 0.828 0 1.5 0.895 1.5 2 z" />
      </g>
    </clipPath>
    <linearGradient
       gradientTransform="matrix(0,-1,1,0,-1.5e-6,47.999998)"
       gradientUnits="userSpaceOnUse"
       x2="47"
       x1="1"
       id="linearGradient3764-2">
      <stop
         id="stop3391"
         stop-opacity="1"
         stop-color="#333" />
      <stop
         id="stop3393"
         stop-opacity="1"
         stop-color="#3d3d3d"
         offset="1" />
    </linearGradient>
    <clipPath
       clipPathUnits="userSpaceOnUse"
       id="clipPath3839">
      <rect
         style="opacity:1.03162393;fill:#54398d;fill-opacity:1.0;fill-rule:evenodd;stroke:none"
         id="rect3841"
         width="460.00012"
         height="369.99997"
         x="-210"
         y="852.36218" />
    </clipPath>
  </defs>
  <sodipodi:namedview
     id="base"
     pagecolor="#ffffff"
     bordercolor="#666666"
     borderopacity="1.0"
     inkscape:pageopacity="0.0"
     inkscape:pageshadow="2"
     inkscape:zoom="6.2331466"
     inkscape:cx="14.710185"
     inkscape:cy="16.394845"
     inkscape:document-units="px"
     inkscape:current-layer="layer1"
     showgrid="true"
     inkscape:window-width="1280"
     inkscape:window-height="998"
     inkscape:window-x="0"
     inkscape:window-y="0"
     inkscape:window-maximized="1">
    <inkscape:grid
       type="xygrid"
       id="grid2990"
       empspacing="5"
       visible="true"
       enabled="true"
       snapvisiblegridlinesonly="true" />
  </sodipodi:namedview>
  <metadata
     id="metadata7">
    <rdf:RDF>
      <cc:Work
         rdf:about="">
        <dc:format>image/svg+xml</dc:format>
        <dc:type
           rdf:resource="http://purl.org/dc/dcmitype/StillImage" />
        <dc:title />
      </cc:Work>
    </rdf:RDF>
  </metadata>
  <g
     inkscape:groupmode="layer"
     id="layer3"
     inkscape:label="Blob"
     sodipodi:insensitive="true">
    <path
       sodipodi:type="arc"
       style="opacity:0.65;fill:url(#radialGradient3850);fill-opacity:1;stroke:none"
       id="path3842"
       sodipodi:cx="24.075672"
       sodipodi:cy="41.38316"
       sodipodi:rx="21.075672"
       sodipodi:ry="2.3831596"
       d="m 45.151344,41.38316 a 21.075672,2.3831596 0 1 1 -42.151344,0 21.075672,2.3831596 0 1 1 42.151344,0 z"
       transform="matrix(1.1387537,0,0,1.0490275,-3.4162611,-1.9120725)" />
  </g>
  <g
     inkscape:label="Body"
     inkscape:groupmode="layer"
     id="layer1"
     transform="translate(0,-1004.3622)">
    <path
       sodipodi:nodetypes="ccccccccc"
       inkscape:connector-curvature="0"
       id="path3029"
       d="m 3,1014.3622 0,28 42,0 0,-14 -2,-12 -16,0 -2,-4 -20,0 c -1,0 -2,1 -2,2 z"
       style="fill:#512da8;fill-opacity:1;stroke:none" />
    <rect
       style="fill:#fffdf0;fill-opacity:1;stroke:none"
       id="rect3799"
       width="21"
       height="7.9999828"
       x="6"
       y="1017.3622" />
    <path
       style="opacity:0.02999998;fill:#000000;fill-opacity:1;stroke:none"
       d="m 5,1012.3622 c -1,0 -2,1 -2,2 l 0,1 c 0,-1 1,-2 2,-2 l 19,0 2,4 17,0 2,12 0,-1 -2,-12 -16,0 -2,-4 z"
       id="path3810"
       inkscape:connector-curvature="0"
       sodipodi:nodetypes="sscsccccccccs" />
    <path
       style="fill:#7e57c2;fill-opacity:1;stroke:none"
       d="m 45,1018.3622 0,28 -42,0 0,-26 20,0 2,-4 18,0 c 1,0 2,1 2,2 z"
       id="rect2987"
       inkscape:connector-curvature="0"
       sodipodi:nodetypes="cccccccc" />
    <path
       sodipodi:nodetypes="ccccc"
       id="path3794"
       d="m 3,1045.3622 0,1 42,0 0,-1 z"
       style="opacity:0.15;fill:#000000;fill-opacity:1;stroke:none"
       inkscape:connector-curvature="0" />
    <path
       style="fill:none;stroke:none"
       d="m 25,1017.3622 -5,3 3,0 z"
       id="path3801"
       inkscape:connector-curvature="0" />
    <path
       style="opacity:0.02999998;fill:#000000;fill-opacity:1;stroke:none"
       d="m 25,1016.3622 -2,4 -20,0 0,1 21,0 2,-4 17,0 c 1,0 2,1 2,2 l 0,-1 c 0,-1 -1,-2 -2,-2 z"
       id="path3805"
       inkscape:connector-curvature="0"
       sodipodi:nodetypes="ccccccscssc" />
    <g
       id="g3417"
       transform="translate(49.566,1008.4402)" />
    <path
       style="opacity:1.00000000000000002;fill:#54398d;fill-opacity:1;stroke:none"
       d="M 23 22 C 19.006137 22.09731 16 25 16 28 C 16 31 18 31 19 31 C 20 31 21 31 21 33 C 21 35 22 36 24 36 C 31 36 32 31 32 29 C 32 26 29 22 23 22 z M 21 24 C 21.552285 24 22 24.447715 22 25 C 22 25.552285 21.552285 26 21 26 C 20.447715 26 20 25.552285 20 25 C 20 24.447715 20.447715 24 21 24 z M 25 24 C 25.552285 24 26 24.447715 26 25 C 26 25.552285 25.552285 26 25 26 C 24.447715 26 24 25.552285 24 25 C 24 24.447715 24.447715 24 25 24 z M 29 26 C 29.552285 26 30 26.447715 30 27 C 30 27.552285 29.552285 28 29 28 C 28.447715 28 28 27.552285 28 27 C 28 26.447715 28.447715 26 29 26 z M 18 27 C 18.552285 27 19 27.447715 19 28 C 19 28.552285 18.552285 29 18 29 C 17.447715 29 17 28.552285 17 28 C 17 27.447715 17.447715 27 18 27 z M 24.5 32 C 25.328427 32 26 32.671573 26 33.5 C 26 34.328427 25.328427 35 24.5 35 C 23.671573 35 23 34.328427 23 33.5 C 23 32.671573 23.671573 32 24.5 32 z "
       transform="translate(0,1004.3622)"
       id="path3843" />
  </g>
</svg>

<!-- Created with Inkscape (http://www.inkscape.org/) -->
<svg xmlns="http://www.w3.org/2000/svg" viewBox="0 0 48 48">
 <defs>
  <radialGradient id="radialGradient3850" cx="24.08" cy="41.38" r="21.08" gradientTransform="matrix(1,0,0,0.11307633,0,36.703704)" gradientUnits="userSpaceOnUse">
   <stop style="stop-color:#000;stop-opacity:0.392"/>
   <stop offset="1" style="stop-color:#000;stop-opacity:0"/>
  </radialGradient>
 </defs>
 <g>
  <path d="m 45.15 41.38 a 21.08 2.383 0 1 1 -42.15 0 21.08 2.383 0 1 1 42.15 0 z" transform="matrix(1.1387537,0,0,1.0490275,-3.4162611,-1.9120725)" style="fill:url(#radialGradient3850);opacity:0.65;fill-opacity:1;stroke:none"/>
 </g>
 <g transform="translate(0,-1004.3622)">
  <path d="m 3 1014.36 0 28 42 0 0 -14 -2 -12 -16 0 -2 -4 -20 0 c -1 0 -2 1 -2 2 z" style="fill:#512da8;fill-opacity:1;stroke:none"/>
  <rect width="21" height="8" x="6" y="1017.36" style="fill:#fffdf0;fill-opacity:1;stroke:none"/>
  <path d="m 5 1012.36 c -1 0 -2 1 -2 2 l 0 1 c 0 -1 1 -2 2 -2 l 19 0 2 4 17 0 2 12 0 -1 -2 -12 -16 0 -2 -4 z" style="fill:#000;opacity:0.03;fill-opacity:1;stroke:none"/>
  <path d="m 45 1018.36 0 28 -42 0 0 -26 20 0 2 -4 18 0 c 1 0 2 1 2 2 z" style="fill:#7e57c2;fill-opacity:1;stroke:none"/>
  <path d="m 3 1045.36 0 1 42 0 0 -1 z" style="fill:#000;opacity:0.15;fill-opacity:1;stroke:none"/>
  <path d="m 25 1016.36 -2 4 -20 0 0 1 21 0 2 -4 17 0 c 1 0 2 1 2 2 l 0 -1 c 0 -1 -1 -2 -2 -2 z" style="fill:#000;opacity:0.03;fill-opacity:1;stroke:none"/>
  <path d="m 23 22 c -3.994 0.097 -7 3 -7 6 c 0 3 2 3 3 3 c 1 0 2 0 2 2 c 0 2 1 3 3 3 c 7 0 8 -5 8 -7 c 0 -3 -3 -7 -9 -7 z m -2 2 c 0.552 0 1 0.448 1 1 c 0 0.552 -0.448 1 -1 1 c -0.552 0 -1 -0.448 -1 -1 c 0 -0.552 0.448 -1 1 -1 z m 4 0 c 0.552 0 1 0.448 1 1 c 0 0.552 -0.448 1 -1 1 c -0.552 0 -1 -0.448 -1 -1 c 0 -0.552 0.448 -1 1 -1 z m 4 2 c 0.552 0 1 0.448 1 1 c 0 0.552 -0.448 1 -1 1 c -0.552 0 -1 -0.448 -1 -1 c 0 -0.552 0.448 -1 1 -1 z m -11 1 c 0.552 0 1 0.448 1 1 c 0 0.552 -0.448 1 -1 1 c -0.552 0 -1 -0.448 -1 -1 c 0 -0.552 0.448 -1 1 -1 z m 6.5 5 c 0.828 0 1.5 0.672 1.5 1.5 c 0 0.828 -0.672 1.5 -1.5 1.5 c -0.828 0 -1.5 -0.672 -1.5 -1.5 c 0 -0.828 0.672 -1.5 1.5 -1.5 z" transform="translate(0,1004.3622)" style="fill:#54398d;opacity:1;fill-opacity:1;stroke:none"/>
 </g>
</svg>
